frontend/public/svg/interface/trophy.svg

<svg width="146" height="157" viewBox="0 0 146 157" fill="none" xmlns="http://www.w3.org/2000/svg">
<g clip-path="url(#clip0)">
<path d="M84.2177 81.107C85.8205 86.8648 88.6698 91.5132 91.7408 96.1537C94.3495 100.096 97.4537 101.524 102.19 101.244C108.946 100.844 109.993 102.139 110.513 108.969C110.898 114.041 111.255 119.115 111.655 124.591C113.151 124.591 114.451 124.591 115.758 124.591C120.039 124.591 123.332 127.569 123.509 131.652C123.662 135.194 124.128 138.723 124.457 142.255C124.723 145.114 125.168 147.97 125.213 150.833C125.278 155.154 123.684 156.579 119.325 156.464C107.204 156.139 95.0868 155.591 82.966 155.524C67.5069 155.439 52.0455 155.742 36.5851 155.877C34.3601 155.896 32.1323 155.993 29.9104 155.91C26.1944 155.772 24.0929 153.63 24.2964 149.942C24.6215 144.078 25.1254 138.223 25.5969 132.367C25.8036 129.795 26.9469 127.951 29.7298 127.506C32.4451 127.071 35.1553 126.602 38.3459 126.069C38.5371 123.941 38.8011 121.555 38.9552 119.161C39.1795 115.618 39.2958 112.069 39.5065 108.525C39.7939 103.706 41.5156 101.731 46.2961 101.064C49.042 100.679 51.8328 100.588 54.6066 100.431C55.7478 100.366 56.7927 100.359 57.4169 99.1335C60.1316 93.8 63.2359 88.6417 64.7873 82.7899C64.9439 82.0062 65.0525 81.2141 65.1124 80.4174C64.2834 80.119 63.5817 79.8374 62.8619 79.6123C55.4895 77.3027 48.9705 72.8613 44.131 66.8512C42.8773 65.3337 41.4612 64.8244 39.6126 64.5053C29.2773 62.7225 19.7014 59.0601 11.4696 52.4104C6.11367 48.0838 2.49642 42.6517 1.33902 35.7372C-0.586294 24.1932 8.66307 12.8406 20.3606 12.5195C24.2385 12.4131 28.1223 12.5026 32.1063 12.5026C32.6563 10.3013 33.0634 8.4802 33.568 6.69221C34.3775 3.82146 35.7476 1.62479 39.2633 1.6968C40.6808 1.72729 42.1055 1.1292 43.5301 1.11298C64.7759 0.868615 86.0221 0.660473 107.268 0.48877C108.597 0.508304 109.919 0.671242 111.212 0.974707C114.149 1.59687 115.763 3.57496 116.436 6.39382C116.696 7.47144 116.886 8.56466 117.171 9.96599C118.024 9.96599 118.874 9.97637 119.724 9.96599C123.505 9.90954 127.286 9.80444 131.067 9.79601C139.346 9.7772 146.176 16.0818 145.409 25.8761C143.965 44.3249 129.757 58.6314 113.921 61.4223C113.817 61.4599 113.707 61.4817 113.595 61.4872C109.373 60.8326 107.6 63.492 105.558 66.6306C100.645 74.1718 93.6381 79.068 84.2177 81.107ZM40.0586 7.26195C39.9058 8.17671 39.79 8.70992 39.7295 9.25034C38.3224 22.4145 39.6505 35.7266 43.6309 48.3556C47.8938 62.2254 57.2114 70.9851 72.0949 72.897C81.5466 74.1121 90.1204 72.3462 96.4946 64.6435C98.533 62.1606 100.247 59.4292 101.595 56.5151C108.357 41.9394 110.203 26.6001 108.234 10.7398C108.104 9.683 107.793 8.64835 107.492 7.26195H40.0586ZM31.4281 133.914C31.9196 139.121 32.3735 143.93 32.8436 148.919C34.3391 148.919 35.4276 148.961 36.5141 148.913C45.3929 148.524 54.2692 147.86 63.1506 147.771C79.7116 147.606 96.2755 147.771 112.839 147.792C113.792 147.792 114.745 147.698 115.808 147.641C116.31 142.641 116.78 137.95 117.278 132.979L31.4281 133.914ZM100.239 124.813C100.709 119.499 101.727 114.569 101.734 109.335C83.297 108.949 65.2781 107.382 46.8092 108.254C47.4594 114.312 48.0784 120.062 48.6993 125.842L100.239 124.813ZM31.7826 18.8449C27.6497 19.4243 23.942 20.0016 20.2189 20.4486C16.4599 20.9027 13.9703 22.9788 12.1965 26.181C9.2945 31.4263 9.87775 36.5392 13.3018 41.1402C19.0706 48.8961 27.5241 52.3086 36.9758 55.0282C32.8423 43.1098 31.988 31.2583 31.7826 18.8449ZM112.731 51.362C122.604 48.388 129.097 42.6738 132.993 34.2347C134.397 30.9962 135.318 27.5694 135.724 24.0641C136.179 20.712 134.583 18.6794 131.633 18.2207C127.036 17.5109 122.409 18.0261 117.533 17.9612C118.154 29.3018 116.522 40.6527 112.731 51.362ZM76.7739 81.8194L72.1671 81.5806C69.9979 87.8613 67.925 93.861 65.749 100.16H83.8672L76.7739 81.8194Z" fill="black"/>
</g>
<defs>
<clipPath id="clip0">
<rect width="145" height="157" fill="white" transform="translate(0.777344)"/>
</clipPath>
</defs>
</svg>

<svg xmlns="http://www.w3.org/2000/svg" width="146" height="157" fill="none" viewBox="0 0 146 157"><g clip-path="url(#a)"><path fill="#000" d="M84.218 81.107c1.602 5.758 4.452 10.406 7.523 15.047 2.609 3.942 5.713 5.37 10.449 5.09 6.756-.4 7.803.895 8.323 7.725.385 5.072.742 10.146 1.142 15.622h4.103c4.281 0 7.574 2.978 7.751 7.061.153 3.542.619 7.071.948 10.603.266 2.859.711 5.715.756 8.578.065 4.321-1.529 5.746-5.888 5.631-12.121-.325-24.238-.873-36.359-.94-15.46-.085-30.92.218-46.38.353-2.226.019-4.454.116-6.676.033-3.716-.138-5.817-2.28-5.614-5.968.326-5.864.83-11.719 1.3-17.575.208-2.572 1.35-4.416 4.134-4.861 2.715-.435 5.425-.904 8.616-1.437.191-2.128.455-4.514.61-6.908.223-3.543.34-7.092.55-10.636.288-4.819 2.01-6.794 6.79-7.461 2.746-.385 5.537-.476 8.31-.633 1.142-.065 2.187-.072 2.81-1.297 2.716-5.334 5.82-10.492 7.371-16.344a20 20 0 0 0 .325-2.373c-.829-.298-1.53-.58-2.25-.805a39.03 39.03 0 0 1-18.731-12.76c-1.254-1.518-2.67-2.028-4.518-2.347C29.277 62.723 19.7 59.06 11.47 52.41c-5.356-4.326-8.974-9.758-10.131-16.673C-.586 24.193 8.663 12.841 20.361 12.52c3.877-.107 7.761-.017 11.745-.017.55-2.202.957-4.023 1.462-5.81.81-2.872 2.18-5.068 5.695-4.996 1.418.03 2.843-.568 4.267-.584Q75.4.746 107.268.489c1.329.02 2.651.182 3.944.486 2.937.622 4.551 2.6 5.224 5.419.26 1.077.45 2.17.735 3.572.853 0 1.703.01 2.553 0 3.781-.056 7.562-.162 11.343-.17 8.279-.019 15.109 6.286 14.342 16.08-1.444 18.449-15.652 32.755-31.488 35.546a1.1 1.1 0 0 1-.326.065c-4.222-.654-5.995 2.005-8.037 5.144-4.913 7.54-11.92 12.437-21.34 14.476M40.058 7.262c-.152.915-.268 1.448-.328 1.988a96.1 96.1 0 0 0 3.9 39.106c4.264 13.87 13.581 22.63 28.465 24.541 9.452 1.215 18.025-.55 24.4-8.254a38 38 0 0 0 5.1-8.128c6.762-14.576 8.608-29.915 6.639-45.775-.13-1.057-.441-2.092-.742-3.478zm-8.63 126.652 1.416 15.005c1.495 0 2.584.042 3.67-.006 8.879-.389 17.755-1.053 26.637-1.142 16.56-.165 33.124 0 49.688.021.953 0 1.906-.094 2.969-.151l1.47-14.662zm68.811-9.101c.47-5.314 1.488-10.244 1.495-15.478-18.437-.386-36.456-1.953-54.925-1.081.65 6.058 1.27 11.808 1.89 17.588zM31.783 18.845c-4.133.58-7.841 1.157-11.564 1.604-3.76.454-6.249 2.53-8.023 5.732-2.902 5.245-2.318 10.358 1.106 14.96 5.769 7.755 14.222 11.168 23.674 13.887-4.134-11.918-4.988-23.77-5.193-36.183m80.948 32.517c9.873-2.974 16.366-8.688 20.262-17.127a36 36 0 0 0 2.731-10.17c.455-3.353-1.141-5.386-4.091-5.844-4.597-.71-9.224-.195-14.1-.26a86 86 0 0 1-4.802 33.401M76.774 81.819l-4.607-.238-6.418 18.579h18.118z"/></g><defs><clipPath id="a"><path fill="#fff" d="M.777 0h145v157h-145z"/></clipPath></defs></svg>
